!!!COM: Figueredo, Pedro
!!!CDT: 1819-1870
!!!OTL: National Anthem, Cuba (La Bayamesa) (The Bayamo Song)
!!!ENC: Davis, Matthew J.
!!Vocal Line Only
**kern
*clefG2
*k[b-e-a-]
*E-:
*M2/4
=1-
1r
=2
1r
=3
1r
=4
1r
=5
1r
=6
1r
=7
1r
=8
1r
=9
1r
=10
1r
=11
1r
=12
1r
=13
1r
=14
1r
=15
1r
=16
4r
8.B-
16e-
=17
4g
8.e-
16g
=18
4b-
8.cc
16cc
=19
2b-
=20
4g
8.g
16a-
=21
4g
8.f
16g
=22
8.b-
16a-
8.g
16f
=23
2g
=24
4e-
8.B-
16e-
=25
4g
8.e-
16g
=26
4b-
8.g
16b-
=27
2ee-
=28
4b-
8.b-
16b-
=29
4dd
8.cc
16b-
=30
4a-
8.f
16b-
=31
[2e-
=32
4e-]
8.e-
16d
==|:33
4c
8.e-
16f
=34
4g
8.e-
16c
=35
[2d
=36
4d]
8.f
16e-
=37
4d
8.f
16g
=38
8.b-
16a-
8.g
16f
=39
[2g
=40
4e-]
8.B-
16e-
=41
4g
8.e-
16g
=42
4b-
8.g
16b-
=43
2ee-
=44
4b-
8.b-
16b-
=45
4dd
8.cc
16b-
=46
4a-
8.f
16b-
=47
[2e-
=48
!First Ending
4e-
8.e-
16d
!Repeat from measure 33 to the second ending
==:|49
!Second Ending
4e-]
4r
==|!
*-
